Origami/24x24/apps/gtkterm.svg

<svg width="24" height="24" version="1" xmlns="http://www.w3.org/2000/svg">
 <rect x="2" y="6.5" width="20" height="11" rx="1.25" ry=".982" style="opacity:.2"/>
 <rect x="2" y="6" width="20" height="11" rx="1.25" ry=".982" style="fill:#8e8e8e"/>
 <path d="m6.0086875 8.5000003h11.982626c0.553197 0 1.089497 0.3968457 0.998551 0.875l-0.998551 5.2499997c-0.09095 0.478154-0.445354 0.875-0.998552 0.875h-9.9855214c-0.553198 0-0.907607-0.396846-0.9985521-0.875l-0.998552-5.2499997c-0.090945-0.4781543 0.445354-0.875 0.998552-0.875z" style="opacity:.2"/>
 <rect x="1" y="10.5" width="4" height="4" rx=".909" ry=".858" style="opacity:.2"/>
 <rect x="1" y="10" width="4" height="4" rx=".909" ry=".858" style="fill:#b3b3b3"/>
 <rect x="19" y="10.5" width="4" height="4" rx=".909" ry=".858" style="opacity:.2"/>
 <rect x="19" y="10" width="4" height="4" rx=".909" ry=".858" style="fill:#b3b3b3"/>
 <circle cx="3" cy="12" r="1" style="opacity:.5"/>
 <circle cx="21" cy="12" r="1" style="opacity:.5"/>
 <path d="M 1.9091797,10 C 1.4055166,10 1,10.383067 1,10.858399 l 0,0.5 C 1,10.883067 1.4055166,10.5 1.9091797,10.5 l 2.1816406,0 C 4.5944833,10.5 5,10.883067 5,11.358399 l 0,-0.5 C 5,10.383067 4.5944833,10 4.0908203,10 l -2.1816406,0 z" style="fill:#ffffff;opacity:.1"/>
 <path d="m19.909179 10c-0.503663 0-0.909179 0.383067-0.909179 0.858399v0.5c0-0.475332 0.405516-0.858399 0.909179-0.858399h2.181641c0.503663 0 0.90918 0.383067 0.90918 0.858399v-0.5c0-0.475332-0.405517-0.858399-0.90918-0.858399h-2.181641z" style="fill:#ffffff;opacity:.1"/>
 <path d="m6.0086875 8h11.982626c0.553197 0 1.089497 0.3968457 0.998551 0.875l-0.998551 5.25c-0.090946 0.478154-0.445354 0.875-0.998552 0.875h-9.9855214c-0.553198 0-0.907607-0.396846-0.9985521-0.875l-0.998552-5.25c-0.0909452-0.4781543 0.445354-0.875 0.998552-0.875z" style="fill:#2bd677"/>
 <path d="m7 10.5v1h1v-1h-1zm3 0v1h1v-1h-1zm3 0v1h1v-1h-1zm3 0v1h1v-1h-1zm-8 2v1h1v-1h-1zm3 0v1h1v-1h-1zm3 0v1h1v-1h-1z" style="opacity:.2"/>
 <path d="m7 10v1h1v-1h-1zm3 0v1h1v-1h-1zm3 0v1h1v-1h-1zm3 0v1h1v-1h-1zm-8 2v1h1v-1h-1zm3 0v1h1v-1h-1zm3 0v1h1v-1h-1z" style="fill:#ffffff"/>
 <path d="m3.25 6c-0.6925 0-1.25 0.4383148-1.25 0.9824219v0.5c0-0.5441071 0.5575-0.9824219 1.25-0.9824219h17.5c0.6925 0 1.25 0.4383148 1.25 0.9824219v-0.5c0-0.5441071-0.5575-0.9824219-1.25-0.9824219h-17.5z" style="fill:#ffffff;opacity:.1"/>
 <path d="m6.0078125 8c-0.553198 0-1.0889921 0.3968457-0.9980469 0.875l0.0351563 0.1835938c0.1293126-0.3242096 0.5388679-0.5585938 0.9628906-0.5585938h11.984376c0.424021 0 0.833578 0.2343842 0.96289 0.5585938l0.035156-0.1835938c0.090946-0.4781543-0.444849-0.875-0.998046-0.875h-11.984376z" style="fill:#ffffff;opacity:.1"/>
</svg>

<svg xmlns="http://www.w3.org/2000/svg" width="24" height="24" version="1">
 <rect style="opacity:0.2" width="20" height="11" x="2" y="6.5" rx="1.25" ry=".982"/>
 <rect style="fill:#8e8e8e" width="20" height="11" x="2" y="6" rx="1.25" ry=".982"/>
 <path style="opacity:0.2" d="m 6.0086875,8.5000003 11.9826255,0 c 0.553197,0 1.089497,0.3968457 0.998551,0.875 L 17.991313,14.625 c -0.09095,0.478154 -0.445354,0.875 -0.998552,0.875 l -9.9855214,0 c -0.553198,0 -0.907607,-0.396846 -0.9985521,-0.875 L 5.0101355,9.3750003 c -0.090945,-0.4781543 0.445354,-0.875 0.998552,-0.875 z"/>
 <rect style="opacity:0.2" width="4" height="4" x="1" y="10.5" rx=".909" ry=".858"/>
 <rect style="fill:#b3b3b3" width="4" height="4" x="1" y="10" rx=".909" ry=".858"/>
 <rect style="opacity:0.2" width="4" height="4" x="19" y="10.5" rx=".909" ry=".858"/>
 <rect style="fill:#b3b3b3" width="4" height="4" x="19" y="10" rx=".909" ry=".858"/>
 <circle style="opacity:0.5" cx="3" cy="12" r="1"/>
 <circle style="opacity:0.5" cx="21" cy="12" r="1"/>
 <path style="opacity:0.1;fill:#ffffff" d="M 1.9091797,10 C 1.4055166,10 1,10.383067 1,10.858399 l 0,0.5 C 1,10.883067 1.4055166,10.5 1.9091797,10.5 l 2.1816406,0 C 4.5944833,10.5 5,10.883067 5,11.358399 l 0,-0.5 C 5,10.383067 4.5944833,10 4.0908203,10 l -2.1816406,0 z"/>
 <path style="opacity:0.1;fill:#ffffff" d="M 19.909179,10 C 19.405516,10 19,10.383067 19,10.858399 l 0,0.5 C 19,10.883067 19.405516,10.5 19.909179,10.5 l 2.181641,0 C 22.594483,10.5 23,10.883067 23,11.358399 l 0,-0.5 C 23,10.383067 22.594483,10 22.09082,10 l -2.181641,0 z"/>
 <path style="fill:#2bd677" d="M 6.0086875,8 17.991313,8 c 0.553197,0 1.089497,0.3968457 0.998551,0.875 l -0.998551,5.25 C 17.900367,14.603154 17.545959,15 16.992761,15 L 7.0072396,15 C 6.4540416,15 6.0996326,14.603154 6.0086875,14.125 L 5.0101355,8.875 C 4.9191903,8.3968457 5.4554895,8 6.0086875,8 Z"/>
 <path style="opacity:0.2" d="m 7,10.5 0,1 1,0 0,-1 -1,0 z m 3,0 0,1 1,0 0,-1 -1,0 z m 3,0 0,1 1,0 0,-1 -1,0 z m 3,0 0,1 1,0 0,-1 -1,0 z m -8,2 0,1 1,0 0,-1 -1,0 z m 3,0 0,1 1,0 0,-1 -1,0 z m 3,0 0,1 1,0 0,-1 -1,0 z"/>
 <path style="fill:#ffffff" d="m 7,10 0,1 1,0 0,-1 -1,0 z m 3,0 0,1 1,0 0,-1 -1,0 z m 3,0 0,1 1,0 0,-1 -1,0 z m 3,0 0,1 1,0 0,-1 -1,0 z m -8,2 0,1 1,0 0,-1 -1,0 z m 3,0 0,1 1,0 0,-1 -1,0 z m 3,0 0,1 1,0 0,-1 -1,0 z"/>
 <path style="fill:#ffffff;opacity:0.1" d="M 3.25 6 C 2.5575 6 2 6.4383148 2 6.9824219 L 2 7.4824219 C 2 6.9383148 2.5575 6.5 3.25 6.5 L 20.75 6.5 C 21.4425 6.5 22 6.9383148 22 7.4824219 L 22 6.9824219 C 22 6.4383148 21.4425 6 20.75 6 L 3.25 6 z"/>
 <path style="opacity:0.1;fill:#ffffff" d="M 6.0078125 8 C 5.4546145 8 4.9188204 8.3968457 5.0097656 8.875 L 5.0449219 9.0585938 C 5.1742345 8.7343842 5.5837898 8.5 6.0078125 8.5 L 17.992188 8.5 C 18.416209 8.5 18.825766 8.7343842 18.955078 9.0585938 L 18.990234 8.875 C 19.08118 8.3968457 18.545385 8 17.992188 8 L 6.0078125 8 z"/>
</svg>
